svgs/solid/briefcase-arrow-right.svg

<svg xmlns="http://www.w3.org/2000/svg" viewBox="0 0 512 512"><!--! Font Awesome Pro 6.6.0 by @fontawesome - https://fontawesome.com License - https://fontawesome.com/license (Commercial License) Copyright 2024 Fonticons, Inc. --><path d="M184 48l144 0c4.4 0 8 3.6 8 8l0 40L176 96l0-40c0-4.4 3.6-8 8-8zm-56 8l0 40L64 96C28.7 96 0 124.7 0 160L0 416c0 35.3 28.7 64 64 64l384 0c35.3 0 64-28.7 64-64l0-256c0-35.3-28.7-64-64-64l-64 0 0-40c0-30.9-25.1-56-56-56L184 0c-30.9 0-56 25.1-56 56zM297 191l80 80c9.4 9.4 9.4 24.6 0 33.9l-80 80c-9.4 9.4-24.6 9.4-33.9 0s-9.4-24.6 0-33.9l39-39L152 312c-13.3 0-24-10.7-24-24s10.7-24 24-24l150.1 0-39-39c-9.4-9.4-9.4-24.6 0-33.9s24.6-9.4 33.9 0z"/></svg>

<svg xmlns="http://www.w3.org/2000/svg" viewBox="0 0 512 512"><!--! Font Awesome Pro 6.4.2 by @fontawesome - https://fontawesome.com License - https://fontawesome.com/license (Commercial License) Copyright 2023 Fonticons, Inc. --><path d="M184 48H328c4.4 0 8 3.6 8 8V96H176V56c0-4.4 3.6-8 8-8zm-56 8V96H64C28.7 96 0 124.7 0 160V416c0 35.3 28.7 64 64 64H448c35.3 0 64-28.7 64-64V160c0-35.3-28.7-64-64-64H384V56c0-30.9-25.1-56-56-56H184c-30.9 0-56 25.1-56 56zM297 191l80 80c9.4 9.4 9.4 24.6 0 33.9l-80 80c-9.4 9.4-24.6 9.4-33.9 0s-9.4-24.6 0-33.9l39-39H152c-13.3 0-24-10.7-24-24s10.7-24 24-24H302.1l-39-39c-9.4-9.4-9.4-24.6 0-33.9s24.6-9.4 33.9 0z"/></svg>
